X: 111
T:Come Back Paddy Reilly
C:Percy French
M:3/4
R:waltz
L:1/8
Z:added by Alf warnock alf0@rogers.com - www.alfwarnock.info/alfs
K:D
A2|"D"A4 BA|"D7"F2 E2 D2|"G"B,2 D3B,|"D"A,4 A,2|D2 D2 D2|"A7"E2 D2 E2|"D"F6-|F4 A2|
"D"A4 BA|"D7"F2 E2 D2|"G"B,2 D3B,|"D"A,4 A,2|D2 D2 D2|"A7"E2 D2 E2|"D"D6-|D4 D2||
"G"B2 B2 B2|B2 G2 B2|"D"B2 A3F|A4 F2|"E7"E2 E2 E2|B2 B2 ^G2|"A7"A6-|A4 AA|
"D"A4 BA|"D7"F2 E2 D2|"G"B,D3 B,2|"D"A,4 FF|"Bm7"F2 E2 D2|"A9"ED3 E2|"D"D6-|D4 D2|]

